X: 1
T: Jean's reel
C:Bobby McLoud
S: Dominique Renaudin <domren@free.fr> scots-l 2003-1-23
M: 4/4
L: 1/8
R: reel
K: Gmaj
D2|G2 GA BGBd|gB (3BBB eBdB|AGAB AGE2|AcBA GFED|
G2 GA BGBd|gabg ageg|d2 Bd gedB|AGFA G2|| Bd|
gBdg BdgB|dgBd gBdg|fdda fdad|gfga bdga|
bgaf gfed|efgf edBd|e2 dB gedB|AGFA G2||
GA|BDDB DDBD|GBDG BDGB|FDDA FDAD|dD^cd =cAFA|
BDDB DDBD|GBDG BDGB|FDFA dD^cd|cAFA G2||
Bd|gBdg BdgB|dgBd gBdg|fdda fdad|
gfga bdga|bgaf gfed|efgf edBd|e2 dB gedB|AGFA G2||
